web/abstruse/src/assets/images/avatars/avatar_2.svg

<svg width="244px" height="278px" viewBox="0 0 244 278" version="1.1" xmlns="http://www.w3.org/2000/svg" xmlns:xlink="http://www.w3.org/1999/xlink">
    <!-- Generator: Sketch 50.2 (55047) - http://www.bohemiancoding.com/sketch -->
    <desc>Created with Sketch.</desc>
    <defs>
        <path d="M124,144.610951 L124,163 L128,163 C167.764502,163 200,195.235498 200,235 L200,244 L0,244 L0,235 C-4.86974701e-15,195.235498 32.235498,163 72,163 L76,163 L76,144.610951 C58.7626345,136.422372 46.3722246,119.687011 44.3051388,99.8812385 C38.4803105,99.0577866 34,94.0521096 34,88 L34,74 C34,68.0540074 38.3245733,63.1180731 44,62.1659169 L44,56 C44,25.072054 69.072054,5.68137151e-15 100,0 C130.927946,-5.68137151e-15 156,25.072054 156,56 L156,62.1659169 C161.675427,63.1180731 166,68.0540074 166,74 L166,88 C166,94.0521096 161.51969,99.0577866 155.694861,99.8812385 C153.627775,119.687011 141.237365,136.422372 124,144.610951 Z" id="path-1"></path>
        <path d="M181.544255,32.3304167 C210.784209,41.4878872 232,68.7921987 232,101.051724 L232,110 L32,110 L32,101.051724 C32,68.3969699 53.7388273,40.8195914 83.5340368,32.0020332 C83.182234,33.4201865 83,34.8712315 83,36.3476251 C83,52.6289957 105.161905,65.8276544 132.5,65.8276544 C159.838095,65.8276544 182,52.6289957 182,36.3476251 C182,34.9849859 181.844766,33.6439396 181.544255,32.3304167 Z" id="path-3"></path>
        <path d="M35.117844,15.1280772 C36.1757121,24.6198025 44.2259873,32 54,32 C63.8042055,32 71.8740075,24.574136 72.8917593,15.0400546 C72.9736685,14.272746 72.1167429,13 71.042767,13 C56.1487536,13 44.7379213,13 37.0868244,13 C36.0066168,13 35.0120058,14.1784435 35.117844,15.1280772 Z" id="path-5"></path>
        <rect id="path-7" x="0" y="0" width="264" height="280"></rect>
        <path d="M156,180.610951 C173.530782,172.282984 186.048193,155.114792 187.791419,134.867187 C193.569129,134.002364 198,129.018625 198,123 L198,110 C198,104.054007 193.675427,99.1180731 188,98.1659169 L188,92 C188,84.0546578 186.345324,76.495786 183.361772,69.6491845 C173.434911,53 89.3126235,53.8033992 80.7098777,69.4854816 C77.6811789,76.3752214 76,83.9912805 76,92 L76,98.1659169 C70.3245733,99.1180731 66,104.054007 66,110 L66,123 C66,129.018625 70.4308707,134.002364 76.2085808,134.867187 C77.9518066,155.114792 90.4692178,172.282984 108,180.610951 L108,199 L104,199 C64.235498,199 32,231.235498 32,271 L32,280 L0,280 L0,5.68434189e-14 L264,5.68434189e-14 L264,280 L232,280 L232,271 C232,231.235498 199.764502,199 160,199 L156,199 L156,180.610951 Z" id="path-9"></path>
        <filter x="-0.8%" y="-2.4%" width="101.6%" height="109.8%" filterUnits="objectBoundingBox" id="filter-11">
            <feOffset dx="0" dy="2" in="SourceAlpha" result="shadowOffsetOuter1"></feOffset>
            <feColorMatrix values="0 0 0 0 0   0 0 0 0 0   0 0 0 0 0  0 0 0 0.2 0" type="matrix" in="shadowOffsetOuter1" result="shadowMatrixOuter1"></feColorMatrix>
            <feMerge>
                <feMergeNode in="shadowMatrixOuter1"></feMergeNode>
                <feMergeNode in="SourceGraphic"></feMergeNode>
            </feMerge>
        </filter>
        <linearGradient x1="50%" y1="0%" x2="50%" y2="100%" id="linearGradient-12">
            <stop stop-color="#FFFFFF" stop-opacity="0.5" offset="0%"></stop>
            <stop stop-color="#000000" stop-opacity="0.5" offset="70.5058195%"></stop>
        </linearGradient>
        <path d="M44.9178864,17.5714286 C44.9178864,27.2737857 36.66775,35.1428571 22.9204545,35.1428571 L20.1704091,35.1428571 C6.42311364,35.1428571 0.923022727,27.2708571 0.923022727,17.5714286 C0.923022727,7.86614286 2.20715909,0 21.4545455,0 L24.3863636,0 C43.63375,0 44.9178864,7.86614286 44.9178864,17.5714286 Z" id="path-13"></path>
        <path d="M106.486068,17.5714286 C106.486068,27.2737857 98.2388636,35.1428571 84.4886364,35.1428571 L81.7385909,35.1428571 C67.9912955,35.1428571 62.4912045,27.2708571 62.4912045,17.5714286 C62.4912045,7.86614286 63.7753409,0 83.0227273,0 L85.9545455,0 C105.199,0 106.486068,7.86614286 106.486068,17.5714286 Z" id="path-14"></path>
    </defs>
    <g id="Introduction" stroke="none" stroke-width="1" fill="none" fill-rule="evenodd">
        <g id="Intro" transform="translate(-497.000000, -331.000000)">
            <g id="back" transform="translate(295.000000, 329.000000)">
                <g id="Avataaar/Default" transform="translate(192.000000, 0.000000)">
                    <g id="Body" stroke-width="1" fill-rule="evenodd" transform="translate(32.000000, 36.000000)">
                        <mask id="mask-2" fill="white">
                            <use xlink:href="#path-1"></use>
                        </mask>
                        <use fill="#D0C6AC" xlink:href="#path-1"></use>
                        <g id="Skin/👶🏾-02-Dark-Brown" mask="url(#mask-2)" fill="#AE5D29">
                            <g transform="translate(-32.000000, 0.000000)" id="Color">
                                <rect x="0" y="0" width="264" height="244"></rect>
                            </g>
                        </g>
                        <path d="M156,94 L156,102 C156,132.927946 130.927946,158 100,158 C69.072054,158 44,132.927946 44,102 L44,94 C44,124.927946 69.072054,150 100,150 C130.927946,150 156,124.927946 156,94 Z" id="Neck-Shadow" fill-opacity="0.100000001" fill="#000000" mask="url(#mask-2)"></path>
                    </g>
                    <g id="Clothing/Shirt-Scoop-Neck" transform="translate(0.000000, 170.000000)">
                        <mask id="mask-4" fill="white">
                            <use xlink:href="#path-3"></use>
                        </mask>
                        <use id="Clothes" fill="#E6E6E6" fill-rule="evenodd" xlink:href="#path-3"></use>
                        <g id="Color/Palette/Gray-01" mask="url(#mask-4)" fill="#E6E6E6" fill-rule="evenodd">
                            <rect id="🖍Color" x="0" y="0" width="264" height="110"></rect>
                        </g>
                    </g>
                    <g id="Face" stroke-width="1" fill-rule="evenodd" transform="translate(76.000000, 82.000000)">
                        <g id="Mouth/Smile" transform="translate(2.000000, 52.000000)">
                            <mask id="mask-6" fill="white">
                                <use xlink:href="#path-5"></use>
                            </mask>
                            <use id="Mouth" fill-opacity="0.699999988" fill="#000000" fill-rule="evenodd" xlink:href="#path-5"></use>
                            <rect id="Teeth" fill="#FFFFFF" fill-rule="evenodd" mask="url(#mask-6)" x="39" y="2" width="31" height="16" rx="5"></rect>
                            <g id="Tongue" stroke-width="1" fill-rule="evenodd" mask="url(#mask-6)" fill="#FF4F6D">
                                <g transform="translate(38.000000, 24.000000)">
                                    <circle cx="11" cy="11" r="11"></circle>
                                    <circle cx="21" cy="11" r="11"></circle>
                                </g>
                            </g>
                        </g>
                        <g id="Nose/Default" transform="translate(28.000000, 40.000000)" fill="#000000" fill-opacity="0.16">
                            <path d="M16,8 C16,12.418278 21.372583,16 28,16 C34.627417,16 40,12.418278 40,8" id="Nose"></path>
                        </g>
                        <g id="Eyes/Default-😀" transform="translate(0.000000, 8.000000)" fill="#000000" fill-opacity="0.599999964">
                            <circle id="Eye" cx="30" cy="22" r="6"></circle>
                            <circle id="Eye" cx="82" cy="22" r="6"></circle>
                        </g>
                        <g id="Eyebrow/Outline/Default" fill="#000000" fill-opacity="0.599999964">
                            <g id="I-Browse" transform="translate(12.000000, 6.000000)">
                                <path d="M3.63024536,11.1585767 C7.54515501,5.64986673 18.2779197,2.56083721 27.5230268,4.83118046 C28.5957248,5.0946055 29.6788665,4.43856013 29.9422916,3.36586212 C30.2057166,2.2931641 29.5496712,1.21002236 28.4769732,0.94659732 C17.7403633,-1.69001789 5.31209962,1.88699832 0.369754639,8.84142326 C-0.270109626,9.74178291 -0.0589363917,10.9903811 0.84142326,11.6302454 C1.74178291,12.2701096 2.9903811,12.0589364 3.63024536,11.1585767 Z" id="Eyebrow" fill-rule="nonzero"></path>
                                <path d="M61.6302454,11.1585767 C65.545155,5.64986673 76.2779197,2.56083721 85.5230268,4.83118046 C86.5957248,5.0946055 87.6788665,4.43856013 87.9422916,3.36586212 C88.2057166,2.2931641 87.5496712,1.21002236 86.4769732,0.94659732 C75.7403633,-1.69001789 63.3120996,1.88699832 58.3697546,8.84142326 C57.7298904,9.74178291 57.9410636,10.9903811 58.8414233,11.6302454 C59.7417829,12.2701096 60.9903811,12.0589364 61.6302454,11.1585767 Z" id="Eyebrow" fill-rule="nonzero" transform="translate(73.000154, 6.039198) scale(-1, 1) translate(-73.000154, -6.039198) "></path>
                            </g>
                        </g>
                    </g>
                    <g id="Top" stroke-width="1" fill-rule="evenodd">
                        <mask id="mask-8" fill="white">
                            <use xlink:href="#path-7"></use>
                        </mask>
                        <g id="Mask"></g>
                        <g id="Top/Accesories/Hat" mask="url(#mask-8)">
                            <g transform="translate(-1.000000, 0.000000)">
                                <g id="Hat" stroke-width="1" fill-rule="evenodd" transform="translate(1.000000, 0.000000)">
                                    <mask id="mask-10" fill="white">
                                        <use xlink:href="#path-9"></use>
                                    </mask>
                                    <g id="Mask-Hair"></g>
                                    <path d="M123.182388,2 L141.817612,2 C160.609055,2 176.866947,15.0804442 180.890118,33.4361631 L190,75 L75,75 L84.1098821,33.4361631 C88.1330533,15.0804442 104.390945,2 123.182388,2 Z" fill="#1F333C" mask="url(#mask-10)"></path>
                                    <ellipse id="Hipster" fill="#1F333C" mask="url(#mask-10)" cx="132" cy="87.5" rx="122" ry="57.5"></ellipse>
                                    <ellipse id="Very" fill="#15232A" mask="url(#mask-10)" cx="132" cy="82" rx="62" ry="25"></ellipse>
                                </g>
                                <g id="Facial-Hair/-Blank" transform="translate(49.000000, 72.000000)"></g>
                                <g id="Top/_Resources/Wayfarers" transform="translate(62.000000, 85.000000)" fill-rule="evenodd" stroke-width="1">
                                    <g id="Wayfarers" filter="url(#filter-11)" transform="translate(7.000000, 7.000000)">
                                        <g id="Shades" transform="translate(10.795455, 2.928571)" fill-rule="nonzero">
                                            <g id="Shade">
                                                <use fill-opacity="0.700000048" fill="#000000" fill-rule="evenodd" xlink:href="#path-13"></use>
                                                <use fill="url(#linearGradient-12)" fill-rule="evenodd" style="mix-blend-mode: screen;" xlink:href="#path-13"></use>
                                            </g>
                                            <g id="Shade">
                                                <use fill-opacity="0.700000048" fill="#000000" fill-rule="evenodd" xlink:href="#path-14"></use>
                                                <use fill="url(#linearGradient-12)" fill-rule="evenodd" style="mix-blend-mode: screen;" xlink:href="#path-14"></use>
                                            </g>
                                        </g>
                                        <path d="M33.7159091,41 L30.9658636,41 C17.0778409,41 8.78665909,33.3359286 8.78665909,20.5 C8.78665909,10.127 10.5985227,0 32.25,0 L35.1818182,0 C56.8332955,0 58.6451591,10.127 58.6451591,20.5 C58.6451591,32.5686429 48.3955227,41 33.7159091,41 Z M32.25,5.85421429 C14.6502955,5.85421429 14.6502955,12.3175714 14.6502955,20.5 C14.6502955,27.1800714 17.4795,35.1428571 30.9658636,35.1428571 L33.7159091,35.1428571 C44.9418409,35.1428571 52.7815227,29.1217143 52.7815227,20.5 C52.7815227,12.3175714 52.7815227,5.85421429 35.1818182,5.85421429 L32.25,5.85421429 Z" id="Left" fill="#252C2F" fill-rule="nonzero"></path>
                                        <path d="M95.2840909,41 L92.5340455,41 C78.6460227,41 70.3548409,33.3359286 70.3548409,20.5 C70.3548409,10.127 72.1667045,0 93.8181818,0 L96.75,0 C118.401477,0 120.213341,10.127 120.213341,20.5 C120.213341,32.5686429 109.963705,41 95.2840909,41 Z M93.8181818,5.85421429 C76.2184773,5.85421429 76.2184773,12.3175714 76.2184773,20.5 C76.2184773,27.1800714 79.0506136,35.1428571 92.5340455,35.1428571 L95.2840909,35.1428571 C106.510023,35.1428571 114.349705,29.1217143 114.349705,20.5 C114.349705,12.3175714 114.349705,5.85421429 96.75,5.85421429 L93.8181818,5.85421429 Z" id="Right" fill="#252C2F" fill-rule="nonzero"></path>
                                        <path d="M2.93181818,5.85714286 C3.61786364,5.17185714 11.1233182,0 32.25,0 C49.9640455,0 53.7138409,1.88014286 59.3898409,4.72085714 L59.8053162,4.93054903 C60.1999353,5.07314243 62.2179351,5.77419634 64.5784525,5.85128811 C66.7290156,5.75689949 68.5684809,5.16080623 69.1059926,4.96981137 C75.5844654,1.74762081 81.9260118,0 96.75,0 C117.876682,0 125.382136,5.17185714 126.068182,5.85714286 C127.689477,5.85714286 129,7.16621429 129,8.78571429 L129,11.7142857 C129,13.3337857 127.689477,14.6428571 126.068182,14.6428571 C126.068182,14.6428571 120.204545,14.6428571 120.204545,17.5714286 C120.204545,20.5 117.272727,13.3337857 117.272727,11.7142857 L117.272727,8.8618831 C113.697201,7.46243482 107.296654,5.85714286 96.75,5.85714286 C84.9995538,5.85714286 79.1475515,6.98813142 74.1276604,9.10414393 L74.1837955,9.24257143 L71.6878772,10.2500422 L74.1813177,11.2582547 L71.981173,16.6874536 L69.263564,15.5885995 C69.0208516,15.4904597 68.4971539,15.3141463 67.770994,15.1309826 C65.7466083,14.6203594 63.6653786,14.4649153 61.8248214,14.8513001 C61.1495627,14.993056 60.5230576,15.2057795 59.9480988,15.4931011 L57.3260941,16.8033836 L54.7026238,11.5651815 L57.3246285,10.2548989 L57.3310023,10.251716 L54.8191364,9.23671429 L54.8992448,9.03890561 C50.5700368,6.97578666 46.5781927,5.85714286 32.25,5.85714286 C21.7038986,5.85714286 15.3034993,7.46145875 11.7272727,8.86093383 L11.7272727,11.7142857 C11.7272727,13.3337857 8.79545455,20.5 8.79545455,17.5714286 C8.79545455,14.6428571 2.93181818,14.6428571 2.93181818,14.6428571 C1.31345455,14.6428571 0,13.3337857 0,11.7142857 L0,8.78571429 C0,7.16621429 1.31345455,5.85714286 2.93181818,5.85714286 Z" id="Stuff" fill="#252C2F" fill-rule="nonzero"></path>
                                    </g>
                                </g>
                            </g>
                        </g>
                    </g>
                </g>
            </g>
        </g>
    </g>
</svg>

<svg width="244" height="278" xmlns="http://www.w3.org/2000/svg" xmlns:xlink="http://www.w3.org/1999/xlink"><defs><path d="M124 144.611V163h4c39.765 0 72 32.235 72 72v9H0v-9c0-39.765 32.235-72 72-72h4v-18.389c-17.237-8.189-29.628-24.924-31.695-44.73C38.48 99.058 34 94.052 34 88V74c0-5.946 4.325-10.882 10-11.834V56c0-30.928 25.072-56 56-56s56 25.072 56 56v6.166c5.675.952 10 5.888 10 11.834v14c0 6.052-4.48 11.058-10.305 11.881-2.067 19.806-14.458 36.541-31.695 44.73z" id="a"/><path d="M181.544 32.33C210.784 41.488 232 68.792 232 101.052V110H32v-8.948c0-32.655 21.739-60.232 51.534-69.05A18.001 18.001 0 0083 36.348c0 16.281 22.162 29.48 49.5 29.48S182 52.629 182 36.348c0-1.363-.155-2.704-.456-4.018z" id="c"/><path d="M35.118 15.128C36.176 24.62 44.226 32 54 32c9.804 0 17.874-7.426 18.892-16.96.082-.767-.775-2.04-1.85-2.04H37.088c-1.08 0-2.075 1.178-1.97 2.128z" id="e"/><path id="g" d="M0 0h264v280H0z"/><path d="M156 180.611c17.53-8.328 30.048-25.496 31.791-45.744C193.57 134.002 198 129.02 198 123v-13c0-5.946-4.325-10.882-10-11.834V92a55.812 55.812 0 00-4.638-22.35C173.435 53 89.312 53.802 80.71 69.484A55.809 55.809 0 0076 92v6.166c-5.675.952-10 5.888-10 11.834v13c0 6.019 4.43 11.002 10.209 11.867 1.743 20.248 14.26 37.416 31.791 45.744V199h-4c-39.765 0-72 32.235-72 72v9H0V0h264v280h-32v-9c0-39.765-32.235-72-72-72h-4v-18.389z" id="i"/><path d="M44.918 17.571c0 9.703-8.25 17.572-21.998 17.572h-2.75C6.423 35.143.923 27.27.923 17.57.923 7.866 2.207 0 21.455 0h2.931c19.248 0 20.532 7.866 20.532 17.571z" id="l"/><path d="M106.486 17.571c0 9.703-8.247 17.572-21.997 17.572h-2.75c-13.748 0-19.248-7.872-19.248-17.572C62.491 7.866 63.775 0 83.023 0h2.932c19.244 0 20.531 7.866 20.531 17.571z" id="n"/><linearGradient x1="50%" y1="0%" x2="50%" y2="100%" id="m"><stop stop-color="#FFF" stop-opacity=".5" offset="0%"/><stop stop-opacity=".5" offset="70.506%"/></linearGradient><filter x="-.8%" y="-2.4%" width="101.6%" height="109.8%" filterUnits="objectBoundingBox" id="k"><feOffset dy="2" in="SourceAlpha" result="shadowOffsetOuter1"/><feColorMatrix values="0 0 0 0 0 0 0 0 0 0 0 0 0 0 0 0 0 0 0.2 0" in="shadowOffsetOuter1" result="shadowMatrixOuter1"/><feMerge><feMergeNode in="shadowMatrixOuter1"/><feMergeNode in="SourceGraphic"/></feMerge></filter></defs><g fill="none" fill-rule="evenodd"><g transform="translate(22 34)"><mask id="b" fill="#fff"><use xlink:href="#a"/></mask><use fill="#D0C6AC" xlink:href="#a"/><g mask="url(#b)" fill="#AE5D29"><path d="M-32 0h264v244H-32z"/></g><path d="M156 94v8c0 30.928-25.072 56-56 56s-56-25.072-56-56v-8c0 30.928 25.072 56 56 56s56-25.072 56-56z" fill-opacity=".1" fill="#000" mask="url(#b)"/></g><g transform="translate(-10 168)"><mask id="d" fill="#fff"><use xlink:href="#c"/></mask><use fill="#E6E6E6" xlink:href="#c"/><g mask="url(#d)" fill="#E6E6E6"><path d="M0 0h264v110H0z"/></g></g><g transform="translate(68 132)"><mask id="f" fill="#fff"><use xlink:href="#e"/></mask><use fill-opacity=".7" fill="#000" xlink:href="#e"/><rect fill="#FFF" mask="url(#f)" x="39" y="2" width="31" height="16" rx="5"/><g mask="url(#f)" fill="#FF4F6D"><g transform="translate(38 24)"><circle cx="11" cy="11" r="11"/><circle cx="21" cy="11" r="11"/></g></g></g><path d="M110 128c0 4.418 5.373 8 12 8s12-3.582 12-8" fill="#000" fill-opacity=".16"/><g transform="translate(66 88)" fill="#000" fill-opacity=".6"><circle cx="30" cy="22" r="6"/><circle cx="82" cy="22" r="6"/></g><g fill-rule="nonzero" fill="#000" fill-opacity=".6"><path d="M81.63 97.159c3.915-5.51 14.648-8.598 23.893-6.328a2 2 0 00.954-3.884c-10.737-2.637-23.165.94-28.107 7.894a2 2 0 003.26 2.318zM162.37 97.159c-3.915-5.51-14.648-8.598-23.893-6.328a2 2 0 01-.954-3.884c10.737-2.637 23.165.94 28.108 7.894a2 2 0 01-3.26 2.318z"/></g><g transform="translate(-10 -2)"><mask id="h" fill="#fff"><use xlink:href="#g"/></mask><g mask="url(#h)"><g><mask id="j" fill="#fff"><use xlink:href="#i"/></mask><path d="M123.182 2h18.636c18.791 0 35.049 13.08 39.072 31.436L190 75H75l9.11-41.564C88.133 15.08 104.39 2 123.182 2z" fill="#1F333C" mask="url(#j)"/><ellipse fill="#1F333C" mask="url(#j)" cx="132" cy="87.5" rx="122" ry="57.5"/><ellipse fill="#15232A" mask="url(#j)" cx="132" cy="82" rx="62" ry="25"/></g><g filter="url(#k)" transform="translate(68 92)"><g fill-rule="evenodd"><g transform="translate(10.795 2.929)"><use fill-opacity=".7" fill="#000" xlink:href="#l"/><use fill="url(#m)" style="mix-blend-mode:screen" xlink:href="#l"/></g><g transform="translate(10.795 2.929)"><use fill-opacity=".7" fill="#000" xlink:href="#n"/><use fill="url(#m)" style="mix-blend-mode:screen" xlink:href="#n"/></g></g><path d="M33.716 41h-2.75c-13.888 0-22.18-7.664-22.18-20.5C8.787 10.127 10.6 0 32.25 0h2.932c21.651 0 23.463 10.127 23.463 20.5 0 12.069-10.25 20.5-24.93 20.5zM32.25 5.854c-17.6 0-17.6 6.464-17.6 14.646 0 6.68 2.83 14.643 16.316 14.643h2.75c11.226 0 19.066-6.021 19.066-14.643 0-8.182 0-14.646-17.6-14.646H32.25zM95.284 41h-2.75c-13.888 0-22.18-7.664-22.18-20.5 0-10.373 1.813-20.5 23.464-20.5h2.932c21.651 0 23.463 10.127 23.463 20.5 0 12.069-10.25 20.5-24.929 20.5zM93.818 5.854c-17.6 0-17.6 6.464-17.6 14.646 0 6.68 2.833 14.643 16.316 14.643h2.75c11.226 0 19.066-6.021 19.066-14.643 0-8.182 0-14.646-17.6-14.646h-2.932z" fill="#252C2F" fill-rule="nonzero"/><path d="M2.932 5.857C3.618 5.172 11.123 0 32.25 0c17.714 0 21.464 1.88 27.14 4.72l.415.21c.395.143 2.413.844 4.773.921a16.54 16.54 0 004.528-.881C75.584 1.748 81.926 0 96.75 0c21.127 0 28.632 5.172 29.318 5.857A2.928 2.928 0 01129 8.786v2.928c0 1.62-1.31 2.929-2.932 2.929 0 0-5.863 0-5.863 2.928 0 2.929-2.932-4.237-2.932-5.857V8.862c-3.576-1.4-9.976-3.005-20.523-3.005-11.75 0-17.602 1.131-22.622 3.247l.056.139-2.496 1.007 2.493 1.008-2.2 5.43-2.717-1.1a12.721 12.721 0 00-1.493-.457c-2.024-.51-4.106-.666-5.946-.28a7.735 7.735 0 00-1.877.642l-2.622 1.31-2.623-5.238 2.622-1.31.006-.003-2.512-1.015.08-.198C50.57 6.976 46.58 5.857 32.25 5.857c-10.546 0-16.947 1.604-20.523 3.004v2.853c0 1.62-2.932 8.786-2.932 5.857 0-2.928-5.863-2.928-5.863-2.928A2.93 2.93 0 010 11.714V8.786a2.93 2.93 0 012.932-2.929z" fill="#252C2F" fill-rule="nonzero"/></g></g></g></g></svg>
